X: 4
T: Sheila Coyle's
R: reel
M: 4/4
L: 1/8
K: Dmaj
FA (3AAA FADF | Adcd BAFA | GB{d}BA ~B3d | ABdf edBA |
F2AD FADF | Ad{e}dA BAFA | GABd AGFD |1 (3EFG AG FDDE :|]2 (3EFG AG FDFA |]
df{g}fe ~f3e | dcdB ADFA | c2ec fcec | Bd{e}dB ABcA |
df{g}fe ~f3e | dcdB AGFA | GBdB AGFD |1 (3EFG AG FDFA :|]2 (3EFG AG FDD2 |]


Tune 1040	Setting 24907

